X: 20999
T: Julia Delaney's
R: reel
M: 4/4
K: Ddorian
dcAG F2 DF|E2 CE F2 D2|dcAG F2 DF|Ad{e}d^c defe|
dcAG F2 DF|E2 CE F2 D2|dcAG F2DF|1 Ad{e/}d^c d4:|2 Ad{e/}d^c d3 e||
|:fede fagf|e/d/cgc acgc|fede fagf|edcB Ad{e}de|
fede fagf|e/d/cgc acgc|fede edcB|1 Add^c d3 e:|2 Ad{e/}d^c d4||

